blockchains/ethereum/assets/0x301C755bA0fcA00B1923768Fffb3Df7f4E63aF31/logo.svg

<svg width="250" height="250" viewBox="0 0 250 250" fill="none" xmlns="http://www.w3.org/2000/svg">
<path d="M125 247.95C192.848 247.95 247.85 192.948 247.85 125.1C247.85 57.2518 192.848 2.25 125 2.25C57.1517 2.25 2.1499 57.2518 2.1499 125.1C2.1499 192.948 57.1517 247.95 125 247.95Z" fill="url(#paint0_linear_37_33557)"/>
<path d="M142.95 147.899C142.95 132.749 155.25 120.449 170.4 120.449H247.9C247.3 103.699 243.3 87.8492 236.65 73.4492H170.4C163.2 73.4492 156.15 74.4492 149.35 76.4992C148.9 75.1992 148.4 73.8992 147.85 72.6492C144.1 63.7992 138.75 55.7992 131.9 48.9992C125.1 42.1992 117.1 36.7992 108.25 33.0492C99.05 29.1492 89.3 27.1992 79.25 27.1992H50.55C34.4501 39.3992 21.5 55.5492 13 74.1492H79.25C94.4 74.1492 106.7 86.4492 106.7 101.599C106.7 116.749 94.4 129.049 79.25 129.049H2.05005C2.60005 145.799 6.45005 161.649 13 176.049H79.25C86.45 176.049 93.5 175.049 100.3 172.999C100.75 174.299 101.25 175.599 101.8 176.849C105.55 185.699 110.9 193.699 117.75 200.499C124.55 207.299 132.55 212.699 141.4 216.449C150.6 220.349 160.35 222.299 170.4 222.299H200.25C216.15 209.999 228.95 193.849 237.25 175.299H170.4C155.25 175.399 142.95 163.099 142.95 147.899Z" fill="white"/>
<defs>
<linearGradient id="paint0_linear_37_33557" x1="38.1425" y1="38.242" x2="211.845" y2="211.944" gradientUnits="userSpaceOnUse">
<stop stop-color="#FF7600"/>
<stop offset="1" stop-color="#FD2600"/>
</linearGradient>
</defs>
</svg>

<svg fill="none" height="250" viewBox="0 0 250 250" width="250" xmlns="http://www.w3.org/2000/svg" xmlns:xlink="http://www.w3.org/1999/xlink"><linearGradient id="a" gradientUnits="userSpaceOnUse" x1="38.1425" x2="211.845" y1="38.242" y2="211.944"><stop offset="0" stop-color="#ff7600"/><stop offset="1" stop-color="#fd2600"/></linearGradient><path d="m125 247.95c67.848 0 122.85-55.002 122.85-122.85 0-67.8482-55.002-122.85-122.85-122.85-67.8483 0-122.8501 55.0018-122.8501 122.85 0 67.848 55.0018 122.85 122.8501 122.85z" fill="url(#a)"/><path d="m142.95 147.899c0-15.15 12.3-27.45 27.45-27.45h77.5c-.6-16.75-4.6-32.5998-11.25-46.9998h-66.25c-7.2 0-14.25 1-21.05 3.05-.45-1.3-.95-2.6-1.5-3.85-3.75-8.85-9.1-16.85-15.95-23.65-6.8-6.8-14.8-12.2-23.65-15.95-9.2-3.9-18.95-5.85-29-5.85h-28.7c-16.0999 12.2-29.05 28.35-37.55 46.95h66.25c15.15 0 27.45 12.3 27.45 27.4498 0 15.15-12.3 27.45-27.45 27.45h-77.19995c.55 16.75 4.4 32.6 10.94995 47h66.25c7.2 0 14.25-1 21.05-3.05.45 1.3.95 2.6 1.5 3.85 3.75 8.85 9.1 16.85 15.95 23.65 6.8 6.8 14.8 12.2 23.65 15.95 9.2 3.9 18.95 5.85 29 5.85h29.85c15.9-12.3 28.7-28.45 37-47h-66.85c-15.15.1-27.45-12.2-27.45-27.4z" fill="#fff"/></svg>
